img/union-2.svg

<svg fill="none" height="24" viewBox="0 0 52 24" width="52" xmlns="http://www.w3.org/2000/svg"><path clip-rule="evenodd" d="m51.593 11.6428c.2253-.8492-.5519-1.6244-1.4004-1.397l-5.3768 1.4407c-.3779.1012-.7891.0082-1.0414-.2909-.9487-1.1248-1.3485-2.61673-1.0893-4.06525.069-.38513.3786-.67129.7565-.77255l5.314-1.4239c.8486-.22738 1.134-1.28731.5144-1.91004l-2.0224-2.03231c-.2887-.290137-.7105-.403722-1.1059-.297785l-7.0211 1.881295c-.3953.10594-.7039.41522-.8088.81084l-.5211 1.96414c-.3499 1.31873-1.3783 2.34967-2.6962 2.7028l-31.87278 8.54026c-1.72502.4622-2.748726 2.2353-2.286507 3.9604.462217 1.725 2.235337 2.7487 3.960357 2.2865l31.87193-8.5401c1.3178-.3531 2.7239.0255 3.6863.9927l1.4347 1.4417c.2887.2902.7105.4037 1.1059.2978l7.0211-1.8813c.3953-.1059.7039-.4152.8088-.8108z" fill="#fff500" fill-rule="evenodd"/></svg>

<svg width="52" height="24" viewBox="0 0 52 24" fill="none" xmlns="http://www.w3.org/2000/svg">
<path fill-rule="evenodd" clip-rule="evenodd" d="M51.593 11.6428C51.8183 10.7936 51.0411 10.0184 50.1926 10.2458L44.8158 11.6865C44.4379 11.7877 44.0267 11.6947 43.7744 11.3956C42.8257 10.2708 42.4259 8.77887 42.6851 7.33035C42.7541 6.94522 43.0637 6.65906 43.4416 6.5578L48.7556 5.1339C49.6042 4.90652 49.8896 3.84659 49.27 3.22386L47.2476 1.19155C46.9589 0.901413 46.5371 0.787828 46.1417 0.893765L39.1206 2.77506C38.7253 2.881 38.4167 3.19028 38.3118 3.5859L37.7907 5.55004C37.4408 6.86877 36.4124 7.89971 35.0945 8.25284L3.22172 16.7931C1.4967 17.2553 0.472994 19.0284 0.935213 20.7535C1.39743 22.4785 3.17055 23.5022 4.89557 23.04L36.7675 14.4999C38.0853 14.1468 39.4914 14.5254 40.4538 15.4926L41.8885 16.9343C42.1772 17.2245 42.599 17.338 42.9944 17.2321L50.0155 15.3508C50.4108 15.2449 50.7194 14.9356 50.8243 14.54L51.593 11.6428Z" fill="#FFF500"/>
</svg>
